!!!OTL: Das Maedchen und der Faehnrich Es wohnt sich ein reicher Metzger mein,
!!!ARE: Europa, Mitteleuropa, Deutschland / France, Lothringen
!!!YOR: 6, S. 107
!!    1928 gedruckt in Heidelberg
!!!SCT: Q0127C
!!!YEM: Copyright 1995, estate of Helmut Schaffrath.
**kern
*ICvox
*Ivox
*M6/8
*k[f#]
*G:
{8d
=1
8d
8g
8g
4g
8b
=2
4b
8dd
4g}
{8b
=3
8b
8a
8a
8d
8f#
8a
=4
4.a
4g}
{8d
=5
8d
8g
16g
16g
8g
8b
8b
=6
4b
8dd
4g}
{8b
=7
8b
8a
8a
8d
8f#
8a
=8
4.a
4g}
==
!!!AGN: Ballade, verbotene Liebe, Flucht
!!!ONB: ESAC (Essen Associative Code) Database: BALLADE
!!!AMT: compound duple
!!!AIN: vox
!!!EED: Helmut Schaffrath
!!!EEV: 1.0
*-
